Gurmukhi/0A22.svg

<svg enable-background="new 0 0 336 592" viewBox="0 0 336 592" xmlns="http://www.w3.org/2000/svg"><path d="m106.074753 256.081238c4.797691-4.764405 9.834564-8.535279 16.054542-10.431076 8.63958-2.633271 14.548989 1.438873 15.189232 10.41008.624603 8.7518.624619 8.739868 9.175003 8.736938 20.33226-.006988 40.665756-.12207 60.995819.090088 4.636032.04837 6.495102-1.060913 6.348999-6.073212-.339782-11.656097-.09729-23.328933-.10791-34.994964-.006058-6.653351-.02124-6.675995-6.569153-6.676163-40.497863-.001053-80.996246-.086441-121.492912.136368-5.041885.02774-7.736282-1.497574-9.012382-6.284424-.810959-3.041992-2.273957-5.903809-3.254013-8.908554-1.659745-5.088638-.452088-6.926025 4.841354-6.940231 9.988495-.026825 19.975052.110656 29.966934.06874 49.163193-.206344 98.327759-.105194 147.491791-.073822 5.494568.00351 10.990234.381669 16.482971.329575 2.46579-.023392 3.612915 1.031418 4.366608 3.174881 1.325042 3.76825 2.863281 7.461395 4.193542 11.227905 1.909729 5.40712.768921 7.15416-4.884887 7.21048-9.83191.097961-19.671113.246552-29.495575-.034409-4.702362-.134445-6.413147 1.246476-6.331284 6.173188.271332 16.327896.117767 32.663177.092773 48.995575-.012756 8.333801-3.803512 12.069336-12.137771 12.06839-28.165177-.003235-56.330551.041259-84.4953-.070588-3.724747-.01477-5.692139.77472-5.136094 5.000916 2.00528 15.241455 5.10553 30.172516 11.891739 44.114654.645111 1.325409 1.465164 2.565674 2.178849 3.80188 2.553726-.171966 3.509719-2.176025 4.915954-3.464782 16.264969-14.906342 34.603546-24.759186 57.427597-23.952576 23.954758.846558 41.464936 17.555786 43.268952 41.366486 1.077179 14.217804-8.278122 30.000518-22.114808 36.282928-24.52478 11.135162-47.964569 7.507172-69.59967-7.231354-24.475372-16.67334-38.098404-41.335113-47.405571-68.686218-2.085182-6.127747-3.599228-12.465668-5.072937-18.777649-.568497-2.434875-1.649124-3.356903-4.028923-3.392456-1.81337-.027008-3.668892-.223602-5.423698-.668213-7.971962-2.019836-11.158295-7.559204-8.969017-15.445343 1.835434-6.611542 5.795127-11.923767 10.649246-17.083038m73.726028 88.223144c-3.85878 3.343384-8.257812 6.128266-11.221634 10.593262.425598.67984.702561 1.284882 1.121094 1.76709 12.966324 14.939148 35.978592 19.834137 53.884811 11.473755 4.912217-2.293488 9.185944-5.402069 12.289475-9.918885 5.587738-8.132293 3.772049-18.713928-4.343323-24.293121-5.409836-3.719086-11.526397-4.951813-18.063492-4.234894-12.482025 1.368866-23.160766 6.90149-33.666931 14.612793z"/></svg>

<svg version="1.1" id="Layer_1" xmlns="http://www.w3.org/2000/svg" xmlns:xlink="http://www.w3.org/1999/xlink" x="0px" y="0px"
	 width="100%" viewBox="0 0 336 592" enable-background="new 0 0 336 592" xml:space="preserve">
<path fill="#000000" opacity="1.000000" stroke="none" 
	d="
M106.074753,256.081238 
	C110.872444,251.316833 115.909317,247.545959 122.129295,245.650162 
	C130.768875,243.016891 136.678284,247.089035 137.318527,256.060242 
	C137.943130,264.812042 137.943146,264.800110 146.493530,264.797180 
	C166.825790,264.790192 187.159286,264.675110 207.489349,264.887268 
	C212.125381,264.935638 213.984451,263.826355 213.838348,258.814056 
	C213.498566,247.157959 213.741058,235.485123 213.730438,223.819092 
	C213.724380,217.165741 213.709198,217.143097 207.161285,217.142929 
	C166.663422,217.141876 126.165039,217.056488 85.668373,217.279297 
	C80.626488,217.307037 77.932091,215.781723 76.655991,210.994873 
	C75.845032,207.952881 74.382034,205.091064 73.401978,202.086319 
	C71.742233,196.997681 72.949890,195.160294 78.243332,195.146088 
	C88.231827,195.119263 98.218384,195.256744 108.210266,195.214828 
	C157.373459,195.008484 206.538025,195.109634 255.702057,195.141006 
	C261.196625,195.144516 266.692291,195.522675 272.185028,195.470581 
	C274.650818,195.447189 275.797943,196.501999 276.551636,198.645462 
	C277.876678,202.413712 279.414917,206.106857 280.745178,209.873367 
	C282.654907,215.280487 281.514099,217.027527 275.860291,217.083847 
	C266.028381,217.181808 256.189178,217.330399 246.364716,217.049438 
	C241.662354,216.914993 239.951569,218.295914 240.033432,223.222626 
	C240.304764,239.550522 240.151199,255.885803 240.126205,272.218201 
	C240.113449,280.552002 236.322693,284.287537 227.988434,284.286591 
	C199.823257,284.283356 171.657883,284.327850 143.493134,284.216003 
	C139.768387,284.201233 137.800995,284.990723 138.357040,289.216919 
	C140.362320,304.458374 143.462570,319.389435 150.248779,333.331573 
	C150.893890,334.656982 151.713943,335.897247 152.427628,337.133453 
	C154.981354,336.961487 155.937347,334.957428 157.343582,333.668671 
	C173.608551,318.762329 191.947128,308.909485 214.771179,309.716095 
	C238.725937,310.562653 256.236115,327.271881 258.040131,351.082581 
	C259.117310,365.300385 249.762009,381.083099 235.925323,387.365509 
	C211.400543,398.500671 187.960754,394.872681 166.325653,380.134155 
	C141.850281,363.460815 128.227249,338.799042 118.920082,311.447937 
	C116.834900,305.320190 115.320854,298.982269 113.847145,292.670288 
	C113.278648,290.235413 112.198021,289.313385 109.818222,289.277832 
	C108.004852,289.250824 106.149330,289.054230 104.394524,288.609619 
	C96.422562,286.589783 93.236229,281.050415 95.425507,273.164276 
	C97.260941,266.552734 101.220634,261.240509 106.074753,256.081238 
M179.800781,344.304382 
	C175.942001,347.647766 171.542969,350.432648 168.579147,354.897644 
	C169.004745,355.577484 169.281708,356.182526 169.700241,356.664734 
	C182.666565,371.603882 205.678833,376.498871 223.585052,368.138489 
	C228.497269,365.845001 232.770996,362.736420 235.874527,358.219604 
	C241.462265,350.087311 239.646576,339.505676 231.531204,333.926483 
	C226.121368,330.207397 220.004807,328.974670 213.467712,329.691589 
	C200.985687,331.060455 190.306946,336.593079 179.800781,344.304382 
z"/>
</svg>
